X:1
T:All Hail the Power of Jesus' Name
T:Text: st. 1-3, Edward Perronet, 1780, alt.; st. 4, John Rippon, 1787, alt. Tune: William Shrubsole, 1779
T:868 with refrain MILES LANE http://www.hymnary.org/text/all_hail_the_power_of_jesus_name_let
T:All Hail the Power of Jesus' Name
T:This hymn is in the public domain. You may freely use this score for personal and congregational worship. If you reproduce the score, please credit Hymnary.org as the source. 
T:This hymn is in the public domain. You may freely use this score for personal and congregational worship. If you reproduce the score, please credit Hymnary.org as the source. 
Z:This hymn is in the public domain. You may freely use this score for personal and congregational worship. If you reproduce the score, please credit Hymnary.org as the source.
%%score ( 1 2 ) ( 3 4 )
L:1/8
M:4/4
K:A
V:1 treble nm="SOPRANO ALTO" snm="S. A."
V:2 treble 
V:3 bass nm="TENOR BASS" snm="T. B."
V:4 bass 
V:1
"^1""^2""^3""^4" E2 | A2 A2 A2 B2 | c2 BA B2 E2 | F2 ED | C2 B,2 | A,6 E2 | A2 A2 A2 B2 | %7
w: All|hail the power of|Je- sus' * name! Let|an- gels *|pros- trate|fall. Bring|forth the roy- al|
w: O|seed of Is- rael's|cho- sen * race now|ran- somed _|from the|fall, hail|him who saves you|
w: Let|ev- ery tongue and|ev- ery * tribe re-|spon- sive *|to his|call, to|him all maj- es-|
w: Oh,|that with all the|sa- cred * throng we|at his *|feet may|fall! We'll|join the ev- er-|
 c2 BA B2 ||1"^Refrain" E2 | A4 A4 | c4 c4 | e4 e4 | c4 d4 | c4 B4 | A6 x2 |] %15
w: di- a- * dem,|and|crown him,|crown him,|crown him,|crown him|Lord of|all!|
w: by his * grace,||||||||
w: ty as- * cribe,||||||||
w: last- ing * song.||||||||
V:2
 C2 | C2 D2 E2 E2 | E2 E^D E2 E2 | D2 A,2 | A,2 G,2 | A,6 C2 | C2 D2 E2 E2 | E2 E^D E2 ||1 E2 | %9
 E4 E4 | F4 F4 | (A2 GF) G4 | E4 F4 | E4 (E2 D2) | C6 x2 |] %15
V:3
 A,2 | E,2 F,2 A,2 G,2 | A,2 B,2 G,2 A,2 | A,2 E,F, | E,2 E,2 | C,6 E,2 | E,2 F,2 E,2 G,2 | %7
 A,2 B,2 G,2 ||1 E,2 | C4 C4 | A,4 A,4 | (C2 B,A,) B,4 | A,4 A,4 | A,4 G,4 | A,6 x2 |] %15
V:4
 A,,2 | A,,2 D,2 C,2 E,2 | A,2 G,F, E,2 C,2 | D,2 C,D, | E,2 E,2 | A,,6 A,,2 | A,,2 D,2 C,2 E,2 | %7
 A,2 G,F, E,2 ||1 E,2 | A,4 A,4 | F,4 F,4 | E,4 E,4 | A,4 D,4 | E,4 E,4 | A,,6 x2 |] %15

